X:1
T:They That Be Wise
T:Ira David Sankey
T:They That Be Wise
T:Public Domain
T:Public Domain
C:Ira David Sankey
Z:Public Domain
%%score ( 1 2 ) ( 3 4 )
L:1/8
M:6/8
K:Eb
V:1 treble 
V:2 treble 
V:3 bass 
V:4 bass 
V:1
 [EB] | [EB]>[EG][FA] [GB][Ac][Ad] | [Ge][Bd][Ac] [GB]2 [EB] | [GB]>[FA][EG] [DF][EG][FA] | %4
w: 1.~O|list to the voice of the|pro- phet of old, Pro-|claim- ing in lan- guage di-|
w: 2.~Tho’|rug- ged the path where our|du- ty may lead, O!|why should we ev- er re-|
w: 3.~The|gran- deur of wealth, and the|tem- ples of fame, Where|beau- ty and splen- dor com-|
w: 4.~Then|let us go forth to the|work yet to do, With|zeal that shall ne- ver de-|
 [EG]3- [EG]2 [EB] | [Ec]>[Ec][Ec] [Ec][Ed][Ae] | [Ge]<[EB][EB] [EB]2 [EB] | %7
w: vine, * The|won- der- ful, won- der- ful|mess- age of truth, That|
w: pine? * When|faith- ful and true is the|prom- ise to all That|
w: bine, * Will|per- ish, for- got- ten and|crum- ble to dust, But|
w: cline, * Be|strong in the Lord, and the|pro- mise be- lieve, That|
 [DB]>[DB][DB] (cd)[Fe] | [Fd]4 ||"^Refrain" [Fc][Fd] | [Ee]2 [Ee] [Ee][Ed][Ec] | [EB]4 [EG][DA] | %12
w: “they that be wise * shall|||||
w: “they that be wise * shall|They|shall shine|as bright as the stars,|In the fir-|
w: “they that be wise * shall|||||
w: “they that be wise * shall|||||
 [EB]>[EB][EB] [DB]<[DA][DF] | [EG]3- [EG]2 [EB] | [Ec]>[Ec][Ec] [Ec][Ad][Ae] | %15
w: |||
w: ma- ment jew- eled with light;|And * they|that turn ma- ny to right-|
w: |||
w: |||
 [Ge]2 [EB] [EB][EG][EA] | [EB]2 [CB] [DB]2 [B,D] | [B,E]3- [B,E]2 |] %18
w: |||
w: eous- ness As the stars|for- ev- er bright.||
w: |||
w: |||
V:2
 x | x6 | x6 | x6 | x6 | x6 | x6 | x3 F2 x | x4 || x2 | x6 | x6 | x6 | x6 | x6 | x6 | x6 | x5 |] %18
w: |||||||shine.”|||||||||||
w: |||||||shine.”|||||||||||
w: |||||||shine.”|||||||||||
w: |||||||shine.”|||||||||||
V:3
 [E,G,] | [E,G,]>[E,B,][E,B,] [E,E][A,E][F,B,] | [E,B,][E,B,][E,C] [E,E]2 [G,B,] | %3
 B,>B,B, [B,,B,][B,,B,][B,,B,] | [E,B,]3- [E,B,]2 [E,G,] | A,>A,A, A,[A,B,][A,C] | %6
 [E,B,]<[E,G,][E,G,] [E,G,]2 [E,G,] | [F,B,]>[F,B,][F,B,] (=A,B,)[F,C] | B,4 || [A,D][A,B,] | %10
 [G,B,]2 [G,B,] [A,C][A,B,]A, | [E,G,]4 [E,B,][F,B,] | [G,B,]>[G,B,][G,B,] [F,B,]<[F,B,][B,,B,] | %13
 [E,B,]3- [E,B,]2 [E,G,] | A,>A,A, A,[F,B,][E,C] | [E,B,]2 [E,G,] [E,G,][E,B,][C,A,] | %16
 [B,,G,]2 [B,,E,] [B,,F,]2 [B,,A,] | [E,G,]3- [E,G,]2 |] %18
V:4
 x | x6 | x6 | B,>B,B, x3 | x6 | A,>A,A, A, x2 | x6 | x3 F,2 x | B,4 || x2 | x5 A, | x6 | x6 | x6 | %14
 A,>A,A, A, x2 | x6 | x6 | x5 |] %18

